Adwaita++-Dark/actions/16/insert-footnote.svg

<svg height="16" viewBox="0 0 16 16" width="16" xmlns="http://www.w3.org/2000/svg">
  <path d="m3 1c-1.108 0-2 .892-2 2v10c0 1.108.892 2 2 2h7c1.108 0 2-.892 2-2v-3h1v5h2v-7h-2l-1 1v-6c0-1.108-.892-2-2-2zm1 10h5v2h-5z" fill="#e6ddff"/>
</svg>

<svg xmlns="http://www.w3.org/2000/svg" width="16" height="16" viewBox="0 0 16 16">
 <defs>
  <style id="current-color-scheme" type="text/css">
   .ColorScheme-Text { color:#E6DDFF; } .ColorScheme-Highlight { color:#4285f4; }
  </style>
 </defs>
 <path style="fill:currentColor" class="ColorScheme-Text" d="M 3 1 C 1.892 1 1 1.892 1 3 L 1 13 C 1 14.108 1.892 15 3 15 L 10 15 C 11.108 15 12 14.108 12 13 L 12 10 L 13 10 L 13 15 L 15 15 L 15 8 L 13 8 L 12 9 L 12 3 C 12 1.892 11.108 1 10 1 L 3 1 z M 4 11 L 9 11 L 9 13 L 4 13 L 4 11 z"/>
</svg>
